.storybook/public/story-assets/icons-link_4_64.svg

<svg width="64" height="64" viewBox="0 0 64 64" fill="none" xmlns="http://www.w3.org/2000/svg">
<path fill-rule="evenodd" clip-rule="evenodd" d="M44.5856 4H19.4144L32 16.5856L44.5856 4ZM16.586 4H12C7.58172 4 4 7.58172 4 12V44.5856L30.5858 17.9998L16.586 4ZM4 47.414V52C4 56.4183 7.58172 60 12 60H52C56.4183 60 60 56.4183 60 52V47.414L32 19.414L4 47.414ZM60 44.5856V12C60 7.58172 56.4183 4 52 4H47.414L33.4142 17.9998L60 44.5856Z" fill="#848894"/>
</svg>

<svg xmlns="http://www.w3.org/2000/svg" width="64" height="64" fill="none"><path fill="#848894" fill-rule="evenodd" d="M44.586 4H19.414L32 16.586zm-28 0H12a8 8 0 0 0-8 8v32.586L30.586 18zM4 47.414V52a8 8 0 0 0 8 8h40a8 8 0 0 0 8-8v-4.586l-28-28zm56-2.828V12a8 8 0 0 0-8-8h-4.586l-14 14z" clip-rule="evenodd"/></svg>
